/* XPM */
static const char * iflow_icon_xpm[] = {
"16 16 8 1",
"  c None",
". c #A855F7",
"+ c #C084FC",
"@ c #FFFFFF",
"# c #1F1147",
"$ c #F9A8D4",
"% c #60A5FA",
"& c #7E22CE",
"................",
"......++++......",
"....++++++++....",
"...++......++...",
"..++..@@@@..++..",
"..+..@####@..+..",
".++..@#%%#@..++.",
".+...@####@...+.",
".+....@@@@....+.",
".+...$$@@$$...+.",
".++....&&....++.",
"..+....&&....+..",
"..++........++..",
"...++......++...",
"....++++++++....",
"......++++......"
};
